!!!COM: Hindemith, Paul
!!!OTL: Symphonic Metamorphosis of Themes by Carl Maria von Weber
!!!OMV: II: Turandot: Scherzo
!!!example: 664
!!!work: Hin-82
**kern	**dynam	**kern	**dynam	**kern	**dynam	**kern	**dynam	**kern	**dynam	**kern	**dynam	**kern	**dynam	**kern	**dynam
*part8	*part8	*part7	*part7	*part6	*part6	*part5	*part5	*part4	*part4	*part3	*part3	*part2	*part2	*part1	*part1
*staff8	*	*staff7	*	*staff6	*	*staff5	*	*staff4	*	*staff3	*	*staff2	*	*staff1	*
*	*	*I"Percussion	*	*I"P6	*	*I"Timpani	*	*I"Clarinet in Bb I. II.	*	*I"Oboe I. II.	*	*I"Flute I. II.	*	*I"Piccolo	*
*I'Vln. I	*	*I'Vln. I	*	*I'Vln. I	*	*I'Timp.	*	*I'Cl.	*	*I'Ob.	*	*I'Fl.	*	*I'Picc.	*
!!pagebreak:original
*clefG2	*	*clefG2	*	*clefG2	*	*clefF4	*	*clefG2	*	*clefG2	*	*clefG2	*	*clefG2	*
*	*	*	*	*	*	*	*	*ITrd1c2	*	*	*	*	*	*ITrd0c0	*
*k[]	*	*k[]	*	*k[]	*	*k[]	*	*k[]	*	*k[]	*	*k[]	*	*k[]	*
*C:	*	*C:	*	*C:	*	*C:	*	*C:	*	*C:	*	*C:	*	*C:	*
*M2/2	*	*M2/2	*	*M2/2	*	*M2/2	*	*M2/2	*	*M2/2	*	*M2/2	*	*M2/2	*
*MM121	*	*MM121	*	*MM121	*	*MM121	*	*MM121	*	*MM121	*	*MM121	*	*MM121	*
=288	=	=	=	=	=	=	=	=	=	=	=	=	=	=	=
4a	.	4g	.	1f	.	4AA	.	2r	.	2r	.	2r	.	1r	.
4r	.	4r	.	.	.	4AA	.	.	.	.	.	.	.	.	.
4r	.	12gL	.	.	.	2r	.	4ff	mp	4ff 4ccc	mp	4aa 4fff	mp	.	.
.	.	12g	.	.	.	.	.	.	.	.	.	.	.	.	.
.	.	12gJ	.	.	.	.	.	.	.	.	.	.	.	.	.
4a	.	4g	.	.	.	.	.	4ff	.	4ff 4ccc	.	4aa 4fff	.	.	.
=289	=289	=289	=289	=289	=289	=289	=289	=289	=289	=289	=289	=289	=289	=289	=289
*^	*	*	*	*	*	*	*	*	*	*	*	*	*	*	*
2r	2ryy	.	4g	.	1d	.	4F	.	1r	.	1r	.	1r	.	1r	.
.	.	.	4r	.	.	.	8DL	.	.	.	.	.	.	.	.	.
.	.	.	.	.	.	.	8CJ	.	.	.	.	.	.	.	.	.
(>2f	4r	.	4ee	.	.	.	4AA	.	.	.	.	.	.	.	.	.
.	[4e	.	4ee	.	.	.	4AA	.	.	.	.	.	.	.	.	.
=290	=290	=290	=290	=290	=290	=290	=290	=290	=290	=290	=290	=290	=290	=290	=290	=290
!	!	!	!	!	!	!	!	!	!	!	!	!	!LO:TX:t=I.	!	!	!
4r)	1e]	.	4r	.	[1c	.	2r	.	4f 4ff	p	4f 4ff	p	4fff	p	1r	.
4a	.	.	4ee	.	.	.	.	.	4f 4ff	.	4f 4ff	.	4fff	.	.	.
!	!	!	!LO:TX:i:t=  dim.	!	!	!	!	!	!	!	!	!	!	!	!	!
4a	.	.	4g	mf	.	.	4F	mf	2r	.	2r	.	2r	.	.	.
!	!	!	!	!	!	!	!LO:TX:i:t=dim.	!	!	!	!	!	!	!	!	!
4r	.	.	4r	.	.	.	8DL	.	.	.	.	.	.	.	.	.
.	.	.	.	.	.	.	8CJ	.	.	.	.	.	.	.	.	.
*v	*v	*	*	*	*	*	*	*	*	*	*	*	*	*	*	*
=291	=291	=291	=291	=291	=291	=291	=291	=291	=291	=291	=291	=291	=291	=291	=291
!	!	!	!	!LO:TX:i:t=  dim.	!	!	!	!	!	!	!	!	!	!	!
4r	.	12gL	.	2c]	mf	4AA	.	2r	.	2r	.	2r	.	2r	.
.	.	12g	.	.	.	.	.	.	.	.	.	.	.	.	.
.	.	12gJ	.	.	.	.	.	.	.	.	.	.	.	.	.
!LO:TX:i:t=  dim.	!	!	!	!	!	!	!	!	!	!	!	!	!	!	!
4a	mf	4g	.	.	.	4AA	.	.	.	.	.	.	.	.	.
!	!	!	!	!	!	!	!	!LO:TX:t=I.	!	!LO:TX:t=I.	!	!	!	!	!
2r	.	4g	.	[2A	.	2r	.	4ff	.	4ff	.	4ff 4fff	p	4fff	p
.	.	4r	.	.	.	.	.	4ff	.	4ff	.	4ff 4fff	.	4fff	.
=292	=292	=292	=292	=292	=292	=292	=292	=292	=292	=292	=292	=292	=292	=292	=292
*^	*	*	*	*	*	*	*	*	*	*	*	*	*	*	*
*	*^	*	*	*	*	*	*	*	*	*	*	*	*	*	*	*
2r	1f	4r	.	4ee	.	2A]	.	4F	.	1r	.	1r	.	1r	.	1r	.
.	.	2.e\	.	4ee	.	.	.	8DL	.	.	.	.	.	.	.	.	.
.	.	.	.	.	.	.	.	8CJ	.	.	.	.	.	.	.	.	.
4r	.	.	.	4r	.	[2f	.	4AA	.	.	.	.	.	.	.	.	.
4a	.	.	.	4ee	.	.	.	4AA	.	.	.	.	.	.	.	.	.
*v	*v	*v	*	*	*	*	*	*	*	*	*	*	*	*	*	*	*
=293	=293	=293	=293	=293	=293	=293	=293	=293	=293	=293	=293	=293	=293	=293	=293
4a	.	4g	.	2f]	.	1r	.	1r	.	1r	.	4ff 4fff	.	4fff	.
4r	.	4r	.	.	.	.	.	.	.	.	.	4ff 4fff	.	4fff	.
4r	.	12gL	.	[2d	.	.	.	.	.	.	.	2r	.	2r	.
.	.	12g	.	.	.	.	.	.	.	.	.	.	.	.	.
.	.	12gJ	.	.	.	.	.	.	.	.	.	.	.	.	.
4a	.	4g	.	.	.	.	.	.	.	.	.	.	.	.	.
=294	=294	=294	=294	=294	=294	=294	=294	=294	=294	=294	=294	=294	=294	=294	=294
*^	*	*	*	*	*	*	*	*	*	*	*	*	*	*	*
2r	2ryy	.	4g	.	2d]	.	1r	.	1r	.	1r	.	4fff	pp	4fff	pp
.	.	.	4r	.	.	.	.	.	.	.	.	.	4fff	.	4fff	.
(>2f	4r	.	4ee	.	[2c	.	.	.	.	.	.	.	2r	.	2r	.
.	[4e	.	4ee	.	.	.	.	.	.	.	.	.	.	.	.	.
=295	=295	=295	=295	=295	=295	=295	=295	=295	=295	=295	=295	=295	=295	=295	=295	=295
4r)	1e]	.	4r	.	2c]	.	1r	.	1r	.	1r	.	1r	.	4fff	.
4a	.	.	4ee	.	.	.	.	.	.	.	.	.	.	.	4fff	.
4a	.	.	4g	.	[2A	.	.	.	.	.	.	.	.	.	2r	.
4r	.	.	4r	.	.	.	.	.	.	.	.	.	.	.	.	.
*v	*v	*	*	*	*	*	*	*	*	*	*	*	*	*	*	*
==	==	==	==	==	==	==	==	==	==	==	==	==	==	==	==
*-	*-	*-	*-	*-	*-	*-	*-	*-	*-	*-	*-	*-	*-	*-	*-
!!!CDT: 1895/11/16-1963/12/28
!!!CBL: Hanau, Germany
!!!CDL: Frankfurt, Germany
!!!CNT: German
!!!AGN: Orchestral; Symphonic
!!!MCN: Rodzinsky, Artur
!!!MDT: 1944/01/20
!!!MGN: New York Philharmonic Orchestra
!!!MLC: New York, New York, United States of America
!!!MPD: 1944
!!!MPN:
!!!ODT: 1943
!!!PDT: 1945
!!!excerpt-start-measure: 288
!!!excerpt-end-measure: 295
!!!excerpt-start-time: 6:53
!!!excerpt-end-time: 7:03
!!!EEV: 2020/01/17
!!!system-decoration: [(s1,s2,s3,s4)][(s5)][(s6,s7,s8)]
!!!RDF**kern: > = above
!!!ONB: Converted from MusicXML on 2020/01/17
